X:655
T:Milliner's Daughter, The
M:C|
L:1/8
R:reel
D:Oisn MacDiarmada, Brian Fitzgerald and Michel  Ruanaigh:
D:Traditional Music on Fiddle, Banjo and Harp
Z:Devin McCabe
K:F
F2AF CFAF|GAdf ecBG|EFFE FGAc|BGEF GFEC|
!E~F3 CFAF|GAdf ecBG|EFFA c3A|1BGEF GFEC:|2BGEF GFFA|
!:cffe f2ef|ceed dede|=Bc-c ~f3 ed|c2df ecAB|
!cffg (3agf gf|efd=B cdef|fggf efd=B|1c2df ecAB:|2c2df ecBG||
